X:1
T:Earl of Leven's Favorite, The
T:Earl of Leven's Favorite, The
T:Nathaniel Gow (1763-1831)
C:Nathaniel Gow (1763-1831)
L:1/8
Q:1/4=120
M:4/4
K:Eb
V:1 treble 
V:1
"^Slow" (G<B) B>G B>c B2 | (G<B) B>G Bc/d/ eB | (G<B) B>G B>c B e/f/ | .g.e .B.G FG AF :| %4
 B>g (f/d/)e/c/ Bc G>A | (B<g) .g.e df a>f | (Bg) g>e (Bc) G2 | (c<e) B>G F>G AF | %8
 (Bg) (f/d)(e/ c/) (Bc) G>A | (B<g) g>e df a>f | g>e f>d (e/d/)(e/c/) B2 | (c<e) B>G F>G AF || %12

